;Sliced by ideaMaker 5.2.4.8581, 2026-02-05 21:57:08 UTC-0300
;Slicer Version: 5.2.3.8580
;Dimension: 305.000 305.000 605.000 0.400 0.400
;Plate Shape: 0
;Origin Center: 0
;Extruder Offset #1: 0.000 0.000
;Filament Diameter #1: 1.750
;Filament Diameter #2: 1.750
;Filament Compensation #1: 90.000
;Filament Compensation #2: 90.000
;Filament Density #1: 1240.000
;Filament Density #2: 1240.000
;Filament Type #1: PLA
;Filament Type #2: PLA
;Filament Name #1: [Raise3D] Premium PLA 1.75mm
;Filament Name #2: [Raise3D] Premium PLA 1.75mm
;Filament #1: PLA 1.75mm
;Filament #2: PLA 1.75mm
;Printer Type: RAISE3D Pro2 Plus
;Firmware: Raise3D Pro2
;Bounding Box: 125.492 179.189 96.138 208.738 0.000 24.320
;Model Gap: 0.150
M221 T0 S90.00
M140 S60.00
M104 T0 S205.00
M109 T0 S205.00
T0
M190 S60.00
G21
G90
M82
M107
G28 X0 Y0
G28 Z0
G1 Z15.0 F300
G92 E0
G1 F140 E29
G1 X20 Y0 F140 E30
G92 E0
G1 F6000.0
M117 Printing...
M1001
;TOTAL_NUM: 1
;PRINTING_TIME: 0
;REMAINING_TIME: 8716
M106 S0
;LAYER:-2
;Z:0.500
;HEIGHT:0.500
;PRINTING: NON-OBJECT
;PRINTING_ID: -1
G1 F2400 E-0.5000
G0 F6000 X132.569 Y105.127
G0 F300 Z0.500
;TYPE:RAFT
;WIDTH:0.800
G1 F1500 E0.0000
G1 F480 X132.898 Y104.722 E0.0868
G1 X133.266 Y104.359 E0.1727
G1 X133.539 Y104.138 E0.2311
G1 X134.652 Y103.425 E0.4510
G1 X135.039 Y103.097 E0.5353
G1 X135.941 Y102.200 E0.7469
G1 X136.348 Y101.847 E0.8365
G1 X137.328 Y101.178 E1.0338
G1 X137.858 Y100.763 E1.1457
G1 X138.185 Y100.542 E1.2114
G1 X138.517 Y100.352 E1.2750
G1 X140.549 Y99.334 E1.6530
G1 X141.267 Y98.883 E1.7940
G1 X141.639 Y98.683 E1.8642
G1 X142.248 Y98.431 E1.9738
G1 X142.996 Y98.182 E2.1049
G1 X143.810 Y97.849 E2.2512
G1 X144.451 Y97.664 E2.3621
G1 X145.495 Y97.449 E2.5394
G1 X147.687 Y96.902 E2.9151
G1 X148.263 Y96.791 E3.0126
G1 X149.919 Y96.582 E3.2902
G1 X150.530 Y96.541 E3.3921
G1 X155.696 Y96.538 E4.2512
G1 X156.178 Y96.563 E4.3314
G1 X156.910 Y96.686 E4.4549
G1 X158.406 Y97.054 E4.7111
G1 X159.553 Y97.291 E4.9058
G1 X160.415 Y97.506 E5.0536
G1 X162.090 Y98.060 E5.3470
G1 X162.670 Y98.303 E5.4516
G1 X164.295 Y99.114 E5.7536
G1 X164.721 Y99.355 E5.8350
G1 X165.317 Y99.726 E5.9517
G1 X166.507 Y100.322 E6.1731
G1 X166.904 Y100.548 E6.2490
G1 X167.777 Y101.128 E6.4233
G1 X168.071 Y101.355 E6.4851
G1 X168.382 Y101.634 E6.5546
G1 X169.250 Y102.501 E6.7586
G1 X169.597 Y102.802 E6.8350
G1 X170.401 Y103.348 E6.9966
G1 X170.797 Y103.662 E7.0807
G1 X172.249 Y105.106 E7.4212
G1 X172.603 Y105.515 E7.5112
G1 X173.245 Y106.450 E7.6998
G1 X173.718 Y107.027 E7.8239
G1 X173.900 Y107.277 E7.8753
G1 X174.155 Y107.704 E7.9580
G1 X174.813 Y108.604 E8.1434
G1 X175.287 Y109.328 E8.2873
G1 X175.552 Y109.816 E8.3797
G1 X176.954 Y112.620 E8.9010
G1 X177.345 Y113.502 E9.0615
G1 X177.469 Y113.831 E9.1199
G1 X177.613 Y114.332 E9.2066
G1 X177.992 Y115.450 E9.4029
G1 X178.282 Y116.604 E9.6008
G1 X178.532 Y117.872 E9.8157
G1 X178.592 Y118.567 E9.9317
G1 X178.672 Y119.173 E10.0334
G1 X178.731 Y119.469 E10.0836
G1 X178.785 Y119.971 E10.1676
G1 X178.789 Y126.526 E11.2577
G1 X178.746 Y127.103 E11.3539
G1 X178.690 Y127.431 E11.4092
G1 X178.408 Y128.578 E11.6056
G1 X174.272 Y149.318 E15.1226
G1 X174.089 Y150.014 E15.2423
G1 X173.886 Y151.251 E15.4508
G1 X173.048 Y155.420 E16.1579
G1 X172.889 Y156.437 E16.3291
G1 X171.803 Y161.802 E17.2394
G1 X171.667 Y162.542 E17.3646
G1 X171.520 Y163.055 E17.4533
G1 X171.259 Y163.816 E17.5871
G1 X171.096 Y164.385 E17.6855
G1 X171.004 Y164.796 E17.7556
G1 X170.639 Y166.657 E18.0709
G1 X170.470 Y167.729 E18.2514
G1 X169.448 Y172.818 E19.1146
G1 X169.069 Y175.131 E19.5044
G1 X168.805 Y176.189 E19.6857
G1 X168.671 Y176.921 E19.8095
G1 X168.288 Y178.420 E20.0668
G1 X168.086 Y179.651 E20.2742
G1 X166.003 Y190.002 E22.0301
G1 X165.869 Y190.732 E22.1536
G1 X165.606 Y191.786 E22.3342
G1 X165.267 Y193.540 E22.6313
G1 X165.006 Y194.586 E22.8106
G1 X164.668 Y196.332 E23.1063
G1 X164.491 Y197.007 E23.2224
G1 X164.271 Y198.123 E23.4116
G1 X164.006 Y199.187 E23.5939
G1 X163.869 Y199.930 E23.7195
G1 X163.665 Y200.598 E23.8357
G1 X163.529 Y200.913 E23.8928
G1 X163.135 Y201.701 E24.0393
G1 X162.917 Y202.244 E24.1366
G1 X162.694 Y202.683 E24.2185
G1 X162.315 Y203.248 E24.3316
G1 X161.885 Y203.739 E24.4401
G1 X159.708 Y205.901 E24.9504
G1 X159.272 Y206.276 E25.0460
G1 X158.854 Y206.561 E25.1302
G1 X158.524 Y206.745 E25.1930
G1 X157.102 Y207.447 E25.4567
G1 X156.592 Y207.656 E25.5484
G1 X156.195 Y207.774 E25.6172
G1 X154.583 Y208.178 E25.8936
G1 X154.092 Y208.274 E25.9768
G1 X153.446 Y208.329 E26.0846
G1 X152.405 Y208.338 E26.2578
G1 X151.754 Y208.296 E26.3662
G1 X151.169 Y208.190 E26.4651
G1 X150.326 Y207.988 E26.6093
G1 X149.298 Y207.776 E26.7838
G1 X148.407 Y207.550 E26.9367
G1 X147.894 Y207.383 E27.0264
G1 X147.464 Y207.192 E27.1047
G1 X146.447 Y206.677 E27.2942
G1 X146.111 Y206.483 E27.3588
G1 X145.650 Y206.154 E27.4529
G1 X144.685 Y205.412 E27.6554
G1 X143.046 Y203.782 E28.0398
G1 X142.676 Y203.356 E28.1336
G1 X142.455 Y203.047 E28.1968
G1 X142.218 Y202.637 E28.2756
G1 X141.266 Y200.710 E28.6330
G1 X141.091 Y200.219 E28.7197
G1 X141.000 Y199.862 E28.7809
G1 X140.470 Y197.139 E29.2423
G1 X140.200 Y196.064 E29.4266
G1 X139.870 Y194.341 E29.7184
G1 X139.578 Y193.154 E29.9216
G1 X139.270 Y191.541 E30.1947
G1 X138.978 Y190.354 E30.3980
G1 X138.871 Y189.744 E30.5010
G1 X138.578 Y188.548 E30.7058
G1 X138.504 Y187.986 E30.8000
G1 X138.306 Y186.908 E30.9823
G1 X138.175 Y186.339 E31.0794
G1 X138.107 Y185.912 E31.1513
G1 X137.775 Y184.339 E31.4187
G1 X137.707 Y183.912 E31.4906
G1 X137.575 Y183.339 E31.5884
G1 X137.507 Y182.912 E31.6603
G1 X137.375 Y182.338 E31.7582
G1 X137.307 Y181.916 E31.8293
G1 X136.977 Y180.352 E32.0951
G1 X136.907 Y179.912 E32.1692
G1 X136.774 Y179.333 E32.2680
G1 X136.670 Y178.743 E32.3676
G1 X136.262 Y177.111 E32.6474
G1 X136.175 Y176.738 E32.7111
G1 X136.071 Y176.144 E32.8114
G1 X135.778 Y174.948 E33.0162
G1 X135.704 Y174.384 E33.1108
G1 X135.551 Y173.598 E33.2439
G1 X135.505 Y173.189 E33.3124
G1 X135.306 Y172.108 E33.4952
G1 X135.175 Y171.539 E33.5923
G1 X135.107 Y171.112 E33.6642
G1 X134.975 Y170.539 E33.7620
G1 X134.907 Y170.112 E33.8339
G1 X134.579 Y168.555 E34.0985
G1 X134.504 Y167.986 E34.1939
G1 X134.306 Y166.908 E34.3762
G1 X133.975 Y165.339 E34.6429
G1 X133.907 Y164.912 E34.7148
G1 X133.775 Y164.339 E34.8125
G1 X133.707 Y163.912 E34.8845
G1 X133.574 Y163.336 E34.9828
G1 X133.507 Y162.913 E35.0540
G1 X133.375 Y162.339 E35.1519
G1 X133.307 Y161.912 E35.2238
G1 X133.175 Y161.339 E35.3216
G1 X133.107 Y160.912 E35.3935
G1 X132.975 Y160.339 E35.4913
G1 X132.907 Y159.912 E35.5632
G1 X132.775 Y159.339 E35.6610
G1 X132.707 Y158.912 E35.7329
G1 X132.575 Y158.339 E35.8307
G1 X132.470 Y157.743 E35.9313
G1 X132.201 Y156.667 E36.1158
G1 X131.670 Y153.940 E36.5778
G1 X131.378 Y152.754 E36.7809
G1 X131.070 Y151.140 E37.0542
G1 X130.802 Y150.070 E37.2376
G1 X130.747 Y149.733 E37.2944
G1 X130.574 Y148.934 E37.4304
G1 X130.507 Y148.512 E37.5014
G1 X130.375 Y147.939 E37.5992
G1 X130.307 Y147.512 E37.6711
G1 X130.175 Y146.939 E37.7689
G1 X130.107 Y146.512 E37.8408
G1 X129.975 Y145.939 E37.9386
G1 X129.907 Y145.512 E38.0105
G1 X129.775 Y144.939 E38.1083
G1 X129.707 Y144.512 E38.1802
G1 X129.575 Y143.939 E38.2780
G1 X129.507 Y143.512 E38.3499
G1 X129.375 Y142.939 E38.4477
G1 X129.307 Y142.512 E38.5196
G1 X129.173 Y141.930 E38.6189
G1 X128.976 Y140.939 E38.7869
G1 X128.931 Y140.636 E38.8378
G1 X128.601 Y139.266 E39.0722
G1 X128.547 Y138.933 E39.1283
G1 X128.374 Y138.134 E39.2643
G1 X128.307 Y137.712 E39.3353
G1 X128.175 Y137.139 E39.4331
G1 X128.107 Y136.712 E39.5050
G1 X127.975 Y136.139 E39.6028
G1 X127.907 Y135.712 E39.6747
G1 X127.775 Y135.139 E39.7725
G1 X127.707 Y134.712 E39.8444
G1 X127.575 Y134.139 E39.9422
G1 X127.507 Y133.712 E40.0141
G1 X127.375 Y133.139 E40.1119
G1 X127.307 Y132.712 E40.1838
G1 X127.175 Y132.139 E40.2816
G1 X127.107 Y131.712 E40.3535
G1 X126.975 Y131.139 E40.4512
G1 X126.907 Y130.712 E40.5231
G1 X126.775 Y130.139 E40.6209
G1 X126.707 Y129.712 E40.6928
G1 X126.575 Y129.138 E40.7908
G1 X126.507 Y128.715 E40.8620
G1 X126.351 Y127.998 E40.9841
G1 X126.292 Y127.309 E41.0991
G1 X126.105 Y126.000 E41.3190
G1 X126.058 Y125.146 E41.4612
G1 X125.952 Y124.602 E41.5534
G1 X125.899 Y124.104 E41.6367
G1 X125.892 Y122.042 E41.9796
G1 X125.917 Y121.561 E42.0597
G1 X126.079 Y120.534 E42.2326
G1 X126.118 Y119.746 E42.3638
G1 X126.290 Y118.626 E42.5522
G1 X126.317 Y118.155 E42.6307
G1 X126.394 Y117.647 E42.7161
G1 X126.584 Y116.923 E42.8406
G1 X126.854 Y115.589 E43.0669
G1 X127.016 Y115.085 E43.1550
G1 X127.326 Y114.349 E43.2878
G1 X127.596 Y113.537 E43.4301
G1 X128.161 Y112.322 E43.6529
G1 X128.140 Y112.312 E43.6568
G1 X128.261 Y111.975 E43.7163
G1 X128.408 Y111.658 E43.7745
G1 X129.334 Y109.832 E44.1149
G1 X129.606 Y109.419 E44.1972
G1 X130.208 Y108.618 E44.3638
G1 X130.523 Y108.129 E44.4605
G1 X131.208 Y107.218 E44.6501
G1 X131.526 Y106.725 E44.7476
G1 X132.046 Y106.017 E44.8937
G1 X132.286 Y105.571 E44.9780
G1 X132.569 Y105.127 E45.0655
G1 F2400 E44.5655
G0 F6000 X127.260 Y115.501
G1 F1500 E45.0655
G1 F480 X127.260 Y130.642 E47.5835
G1 F2400 E47.0835
G0 F6000 X129.684 Y142.592
G1 F1500 E47.5835
G1 F480 X129.684 Y109.954 E53.0112
G0 F6000 X132.108 Y106.540
G1 F480 X132.108 Y154.303 E60.9542
G1 F2400 E60.4542
G0 F6000 X134.532 Y166.236
G1 F1500 E60.9542
G1 F480 X134.532 Y103.928 E71.3161
G0 F6000 X136.956 Y101.867
G1 F480 X136.956 Y178.401 E84.0437
G1 F2400 E83.5437
G0 F6000 X139.380 Y190.483
G1 F1500 E84.0437
G1 F480 X139.380 Y100.322 E99.0376
G0 F6000 X141.804 Y99.004
G1 F480 X141.804 Y200.985 E115.9971
G0 F6000 X144.228 Y204.448
G1 F480 X144.228 Y98.102 E133.6825
G0 F6000 X146.652 Y97.530
G1 F480 X146.652 Y206.376 E151.7837
G0 F6000 X149.076 Y207.347
G1 F480 X149.076 Y97.051 E170.1260
G0 F6000 X151.500 Y96.900
G1 F480 X151.500 Y207.884 E188.5827
G0 F6000 X153.924 Y207.927
G1 F480 X153.924 Y96.899 E207.0467
G0 F6000 X156.348 Y96.957
G1 F480 X156.348 Y207.354 E225.4058
G0 F6000 X158.772 Y206.183
G1 F480 X158.772 Y97.498 E243.4802
G0 F6000 X161.196 Y98.145
G1 F480 X161.196 Y203.916 E261.0700
G1 F2400 E260.5700
G0 F6000 X163.620 Y199.293
G1 F1500 E261.0700
G1 F480 X163.620 Y99.180 E277.7188
G0 F6000 X166.044 Y100.494
G1 F480 X166.044 Y187.972 E292.2665
G1 F2400 E291.7665
G0 F6000 X168.468 Y176.054
G1 F1500 E292.2665
G1 F480 X168.468 Y102.229 E304.5436
G0 F6000 X170.892 Y104.265
G1 F480 X170.892 Y163.787 E314.4422
G1 F2400 E313.9422
G0 F6000 X173.316 Y152.258
G1 F1500 E314.4422
G1 F480 X173.316 Y107.105 E321.9512
G0 F6000 X175.740 Y110.998
G1 F480 X175.740 Y140.117 E326.7937
G1 F2400 E326.2937
G0 F6000 X178.164 Y128.063
G1 F1500 E326.7937
G1 F480 X178.164 Y117.863 E328.4899
;PRINTING_TIME: 253
;REMAINING_TIME: 8463
M106 S255
;LAYER:-2
;Z:1.000
;HEIGHT:0.500
;PRINTING: NON-OBJECT
;PRINTING_ID: -1
G0 F300 Z1.000
G0 F6000 X178.592 Y118.567
;TYPE:RAFT
;WIDTH:0.800
G1 F960 X178.672 Y119.173 E328.5916
G1 X178.731 Y119.469 E328.6418
G1 X178.785 Y119.971 E328.7257
G1 X178.789 Y126.526 E329.8158
G1 X178.746 Y127.103 E329.9121
G1 X178.690 Y127.431 E329.9674
G1 X178.408 Y128.578 E330.1638
G1 X174.272 Y149.318 E333.6808
G1 X174.089 Y150.014 E333.8005
G1 X173.886 Y151.251 E334.0090
G1 X173.048 Y155.420 E334.7161
G1 X172.889 Y156.437 E334.8873
G1 X171.803 Y161.802 E335.7976
G1 X171.667 Y162.542 E335.9227
G1 X171.520 Y163.055 E336.0115
G1 X171.259 Y163.816 E336.1453
G1 X171.096 Y164.385 E336.2437
G1 X171.004 Y164.796 E336.3138
G1 X170.639 Y166.657 E336.6291
G1 X170.470 Y167.729 E336.8096
G1 X169.448 Y172.818 E337.6728
G1 X169.069 Y175.131 E338.0626
G1 X168.805 Y176.189 E338.2439
G1 X168.671 Y176.921 E338.3677
G1 X168.288 Y178.420 E338.6250
G1 X168.086 Y179.651 E338.8324
G1 X166.003 Y190.002 E340.5883
G1 X165.869 Y190.732 E340.7118
G1 X165.606 Y191.786 E340.8924
G1 X165.267 Y193.540 E341.1895
G1 X165.006 Y194.586 E341.3688
G1 X164.668 Y196.332 E341.6645
G1 X164.491 Y197.007 E341.7806
G1 X164.271 Y198.123 E341.9697
G1 X164.006 Y199.187 E342.1521
G1 X163.869 Y199.930 E342.2777
G1 X163.665 Y200.598 E342.3939
G1 X163.529 Y200.913 E342.4510
G1 X163.135 Y201.701 E342.5975
G1 X162.917 Y202.244 E342.6948
G1 X162.694 Y202.683 E342.7767
G1 X162.315 Y203.248 E342.8898
G1 X161.885 Y203.739 E342.9983
G1 X159.708 Y205.901 E343.5086
G1 X159.272 Y206.276 E343.6042
G1 X158.854 Y206.561 E343.6883
G1 X158.524 Y206.745 E343.7512
G1 X157.102 Y207.447 E344.0149
G1 X156.592 Y207.656 E344.1066
G1 X156.195 Y207.774 E344.1754
G1 X154.583 Y208.178 E344.4518
G1 X154.092 Y208.274 E344.5350
G1 X153.446 Y208.329 E344.6428
G1 X152.405 Y208.338 E344.8160
G1 X151.754 Y208.296 E344.9244
G1 X151.169 Y208.190 E345.0233
G1 X150.326 Y207.988 E345.1675
G1 X149.298 Y207.776 E345.3420
G1 X148.407 Y207.550 E345.4949
G1 X147.894 Y207.383 E345.5846
G1 X147.464 Y207.192 E345.6629
G1 X146.447 Y206.677 E345.8524
G1 X146.111 Y206.483 E345.9170
G1 X145.650 Y206.154 E346.0111
G1 X144.685 Y205.412 E346.2136
G1 X143.046 Y203.782 E346.5980
G1 X142.676 Y203.356 E346.6918
G1 X142.455 Y203.047 E346.7550
G1 X142.218 Y202.637 E346.8338
G1 X141.266 Y200.710 E347.1912
G1 X141.091 Y200.219 E347.2779
G1 X141.000 Y199.862 E347.3391
G1 X140.470 Y197.139 E347.8005
G1 X140.200 Y196.064 E347.9848
G1 X139.870 Y194.341 E348.2765
G1 X139.578 Y193.154 E348.4798
G1 X139.270 Y191.541 E348.7529
G1 X138.978 Y190.354 E348.9562
G1 X138.871 Y189.744 E349.0592
G1 X138.578 Y188.548 E349.2640
G1 X138.504 Y187.986 E349.3582
G1 X138.306 Y186.908 E349.5405
G1 X138.175 Y186.339 E349.6376
G1 X138.107 Y185.912 E349.7095
G1 X137.775 Y184.339 E349.9769
G1 X137.707 Y183.912 E350.0488
G1 X137.575 Y183.339 E350.1466
G1 X137.507 Y182.912 E350.2185
G1 X137.375 Y182.338 E350.3164
G1 X137.307 Y181.916 E350.3875
G1 X136.977 Y180.352 E350.6533
G1 X136.907 Y179.912 E350.7274
G1 X136.774 Y179.333 E350.8262
G1 X136.670 Y178.743 E350.9258
G1 X136.262 Y177.111 E351.2056
G1 X136.175 Y176.738 E351.2693
G1 X136.071 Y176.144 E351.3696
G1 X135.778 Y174.948 E351.5744
G1 X135.704 Y174.384 E351.6689
G1 X135.551 Y173.598 E351.8021
G1 X135.505 Y173.189 E351.8706
G1 X135.306 Y172.108 E352.0534
G1 X135.175 Y171.539 E352.1505
G1 X135.107 Y171.112 E352.2224
G1 X134.975 Y170.539 E352.3201
G1 X134.907 Y170.112 E352.3920
G1 X134.579 Y168.555 E352.6567
G1 X134.504 Y167.986 E352.7521
G1 X134.306 Y166.908 E352.9344
G1 X133.975 Y165.339 E353.2010
G1 X133.907 Y164.912 E353.2730
G1 X133.775 Y164.339 E353.3707
G1 X133.707 Y163.912 E353.4426
G1 X133.574 Y163.336 E353.5410
G1 X133.507 Y162.913 E353.6122
G1 X133.375 Y162.339 E353.7101
G1 X133.307 Y161.912 E353.7820
G1 X133.175 Y161.339 E353.8798
G1 X133.107 Y160.912 E353.9517
G1 X132.975 Y160.339 E354.0495
G1 X132.907 Y159.912 E354.1214
G1 X132.775 Y159.339 E354.2192
G1 X132.707 Y158.912 E354.2911
G1 X132.575 Y158.339 E354.3889
G1 X132.470 Y157.743 E354.4895
G1 X132.201 Y156.667 E354.6740
G1 X131.670 Y153.940 E355.1360
G1 X131.378 Y152.754 E355.3391
G1 X131.070 Y151.140 E355.6124
G1 X130.802 Y150.070 E355.7958
G1 X130.747 Y149.733 E355.8526
G1 X130.574 Y148.934 E355.9885
G1 X130.507 Y148.512 E356.0596
G1 X130.375 Y147.939 E356.1574
G1 X130.307 Y147.512 E356.2293
G1 X130.175 Y146.939 E356.3271
G1 X130.107 Y146.512 E356.3990
G1 X129.975 Y145.939 E356.4968
G1 X129.907 Y145.512 E356.5687
G1 X129.775 Y144.939 E356.6665
G1 X129.707 Y144.512 E356.7384
G1 X129.575 Y143.939 E356.8362
G1 X129.507 Y143.512 E356.9081
G1 X129.375 Y142.939 E357.0058
G1 X129.307 Y142.512 E357.0778
G1 X129.173 Y141.930 E357.1771
G1 X128.976 Y140.939 E357.3451
G1 X128.931 Y140.636 E357.3960
G1 X128.601 Y139.266 E357.6304
G1 X128.547 Y138.933 E357.6865
G1 X128.374 Y138.134 E357.8224
G1 X128.307 Y137.712 E357.8935
G1 X128.175 Y137.139 E357.9913
G1 X128.107 Y136.712 E358.0632
G1 X127.975 Y136.139 E358.1610
G1 X127.907 Y135.712 E358.2329
G1 X127.775 Y135.139 E358.3307
G1 X127.707 Y134.712 E358.4026
G1 X127.575 Y134.139 E358.5004
G1 X127.507 Y133.712 E358.5723
G1 X127.375 Y133.139 E358.6701
G1 X127.307 Y132.712 E358.7420
G1 X127.175 Y132.139 E358.8397
G1 X127.107 Y131.712 E358.9116
G1 X126.975 Y131.139 E359.0094
G1 X126.907 Y130.712 E359.0813
G1 X126.775 Y130.139 E359.1791
G1 X126.707 Y129.712 E359.2510
